static/assets/img/icons/theme/shopping/safe.svg

<svg height="24" viewBox="0 0 24 24" width="24" xmlns="http://www.w3.org/2000/svg"><g fill="none" fill-rule="evenodd"><path d="m0 0h24v24h-24z" opacity="0"/><g fill="#000"><path d="m6.5 16h1c.82842712 0 1.5.6715729 1.5 1.5v2c0 .8284271-.67157288 1.5-1.5 1.5h-1c-.82842712 0-1.5-.6715729-1.5-1.5v-2c0-.8284271.67157288-1.5 1.5-1.5zm10 0h1c.8284271 0 1.5.6715729 1.5 1.5v2c0 .8284271-.6715729 1.5-1.5 1.5h-1c-.8284271 0-1.5-.6715729-1.5-1.5v-2c0-.8284271.6715729-1.5 1.5-1.5z" opacity=".3"/><path d="m5 4h14c1.1045695 0 2 .8954305 2 2v11c0 1.1045695-.8954305 2-2 2h-14c-1.1045695 0-2-.8954305-2-2v-11c0-1.1045695.8954305-2 2-2zm10.5 11c1.9329966 0 3.5-1.5670034 3.5-3.5 0-1.93299662-1.5670034-3.5-3.5-3.5s-3.5 1.56700338-3.5 3.5c0 1.9329966 1.5670034 3.5 3.5 3.5zm0-2c.8284271 0 1.5-.6715729 1.5-1.5s-.6715729-1.5-1.5-1.5-1.5.6715729-1.5 1.5.6715729 1.5 1.5 1.5zm-8.5-5c.55228475 0 1 .44771525 1 1v2c0 .5522847-.44771525 1-1 1-.55228475 0-1-.4477153-1-1v-2c0-.55228475.44771525-1 1-1z"/></g></g></svg>

<svg width="24px" height="24px" viewBox="0 0 24 24" version="1.1" xmlns="http://www.w3.org/2000/svg" xmlns:xlink="http://www.w3.org/1999/xlink">
    <title>Icon For Safe</title>
    <g stroke="none" stroke-width="1" fill="none" fill-rule="evenodd">
        <rect opacity="0" x="0" y="0" width="24" height="24"></rect>
        <path d="M6.5,16 L7.5,16 C8.32842712,16 9,16.6715729 9,17.5 L9,19.5 C9,20.3284271 8.32842712,21 7.5,21 L6.5,21 C5.67157288,21 5,20.3284271 5,19.5 L5,17.5 C5,16.6715729 5.67157288,16 6.5,16 Z M16.5,16 L17.5,16 C18.3284271,16 19,16.6715729 19,17.5 L19,19.5 C19,20.3284271 18.3284271,21 17.5,21 L16.5,21 C15.6715729,21 15,20.3284271 15,19.5 L15,17.5 C15,16.6715729 15.6715729,16 16.5,16 Z" fill="#000000" opacity="0.3"></path>
        <path d="M5,4 L19,4 C20.1045695,4 21,4.8954305 21,6 L21,17 C21,18.1045695 20.1045695,19 19,19 L5,19 C3.8954305,19 3,18.1045695 3,17 L3,6 C3,4.8954305 3.8954305,4 5,4 Z M15.5,15 C17.4329966,15 19,13.4329966 19,11.5 C19,9.56700338 17.4329966,8 15.5,8 C13.5670034,8 12,9.56700338 12,11.5 C12,13.4329966 13.5670034,15 15.5,15 Z M15.5,13 C16.3284271,13 17,12.3284271 17,11.5 C17,10.6715729 16.3284271,10 15.5,10 C14.6715729,10 14,10.6715729 14,11.5 C14,12.3284271 14.6715729,13 15.5,13 Z M7,8 L7,8 C7.55228475,8 8,8.44771525 8,9 L8,11 C8,11.5522847 7.55228475,12 7,12 L7,12 C6.44771525,12 6,11.5522847 6,11 L6,9 C6,8.44771525 6.44771525,8 7,8 Z" fill="#000000"></path>
    </g>
</svg>
